X:1970
T:Fire on the Mountains
O:england
B:Joyce, P. W.; "Old Irish Folk Music and Songs"
R:jig
L:1/8
M:6/8
K:G
"With great spirit: not too fast."\
(3d/e/f/|~gfg efd|gdB dBA|DBB Dcc|DBB ABd|
{def}~gfg efd|gdB dBA|DGG ~AGA|BGG G2:||:B/d/|
edd gdd|edd gdB|{def}~gfg efd|gdB ABd|
{def}~gfg efd|gdB dBA|DGG ~AGA|BGG G2:|


